X:96
T:Lady Macdonald’s Reel. RHu.096
S:R.Hughes MS,1823,Whitchurch,Shrops.
R:Reel
A:Whitchurch, Shropshire
Z:Neil Brookes 2006
M:4/4
L:1/8
Q:1/2=90
K:G
B|d2d>e d>Bg>B|dBgB aAAB|d^cde dBgB|AB/c/ BA BG”cr”G:|!
B|DGdG AGBG|DGdG AGAB|DGdG AGBG|d>edc BGGg|!
dgbg agbg|dgbg agea|ba.g.f gf.e.d|efga bgg|]

